docs/img/icon1/service-web-developing_mobile.svg

<svg width="150" height="196" viewBox="0 0 150 196" fill="none" xmlns="http://www.w3.org/2000/svg">
<path d="M68.8798 0H19.6829C12.7589 0 7.83925 1.56262 4.92387 4.68787C1.64409 7.46587 0.00418091 12.1537 0.00418091 18.7515V39.5864C0.00418091 46.1842 1.64409 51.0457 4.92387 54.1709C7.83925 56.9489 12.7589 58.3379 19.6829 58.3379H64.5067C69.2442 58.3379 72.8884 59.7269 75.4394 62.5049C77.9903 64.9356 79.2658 68.4081 79.2658 72.9224V80.7355H19.6829C12.7589 80.7355 7.83925 82.2981 4.92387 85.4233C1.64409 88.2013 0.00419617 92.8892 0.00419617 99.4869V176.576C0.00419617 183.174 1.64409 188.036 4.92387 191.161C7.83925 193.939 12.7589 195.328 19.6829 195.328H130.103C137.027 195.328 142.128 193.939 145.408 191.161C148.324 188.036 149.781 183.174 149.781 176.576V78.652C149.781 52.261 142.493 32.6414 127.916 19.7932C112.975 6.59774 93.296 0 68.8798 0Z" fill="#FF7D04"/>
<path d="M26.4316 134.565H29.0977C30.2383 134.565 31.1016 134.726 31.6875 135.046C32.2734 135.366 32.5664 135.929 32.5664 136.733C32.5664 137.058 32.5137 137.351 32.4082 137.612C32.3066 137.874 32.1582 138.089 31.9629 138.257C31.7676 138.425 31.5293 138.534 31.248 138.585V138.644C31.5332 138.702 31.791 138.804 32.0215 138.948C32.252 139.089 32.4355 139.296 32.5723 139.569C32.7129 139.839 32.7832 140.198 32.7832 140.647C32.7832 141.167 32.6562 141.612 32.4023 141.983C32.1484 142.354 31.7852 142.64 31.3125 142.839C30.8438 143.034 30.2852 143.132 29.6367 143.132H26.4316V134.565ZM28.248 137.958H29.3027C29.8301 137.958 30.1953 137.876 30.3984 137.712C30.6016 137.544 30.7031 137.298 30.7031 136.974C30.7031 136.646 30.582 136.411 30.3398 136.271C30.1016 136.126 29.7227 136.054 29.2031 136.054H28.248V137.958ZM28.248 139.399V141.632H29.4316C29.9785 141.632 30.3594 141.526 30.5742 141.315C30.7891 141.104 30.8965 140.821 30.8965 140.466C30.8965 140.255 30.8496 140.069 30.7559 139.909C30.6621 139.749 30.5039 139.624 30.2812 139.534C30.0625 139.444 29.7598 139.399 29.373 139.399H28.248ZM37.0547 136.458C37.6602 136.458 38.1816 136.575 38.6191 136.81C39.0566 137.04 39.3945 137.376 39.6328 137.817C39.8711 138.259 39.9902 138.798 39.9902 139.435V140.302H35.7656C35.7852 140.806 35.9355 141.202 36.2168 141.491C36.502 141.776 36.8965 141.919 37.4004 141.919C37.8184 141.919 38.2012 141.876 38.5488 141.79C38.8965 141.704 39.2539 141.575 39.6211 141.403V142.786C39.2969 142.946 38.957 143.063 38.6016 143.138C38.25 143.212 37.8223 143.249 37.3184 143.249C36.6621 143.249 36.0801 143.128 35.5723 142.886C35.0684 142.644 34.6719 142.274 34.3828 141.778C34.0977 141.282 33.9551 140.657 33.9551 139.903C33.9551 139.138 34.084 138.501 34.3418 137.993C34.6035 137.481 34.9668 137.099 35.4316 136.845C35.8965 136.587 36.4375 136.458 37.0547 136.458ZM37.0664 137.729C36.7188 137.729 36.4297 137.841 36.1992 138.063C35.9727 138.286 35.8418 138.636 35.8066 139.112H38.3145C38.3105 138.847 38.2617 138.61 38.168 138.403C38.0781 138.196 37.9414 138.032 37.7578 137.911C37.5781 137.79 37.3477 137.729 37.0664 137.729ZM41.0449 139.206C41.0449 138.241 41.1641 137.421 41.4023 136.745C41.6406 136.069 42.0195 135.53 42.5391 135.128C43.0586 134.722 43.7402 134.446 44.584 134.302C45.0059 134.228 45.4336 134.167 45.8672 134.12C46.3047 134.069 46.7578 134.013 47.2266 133.95L47.4316 135.515C47.2285 135.538 47.0078 135.563 46.7695 135.591C46.5312 135.618 46.291 135.647 46.0488 135.679C45.8066 135.706 45.5723 135.735 45.3457 135.767C45.1191 135.794 44.9141 135.821 44.7305 135.849C44.332 135.911 44 136.009 43.7344 136.142C43.4688 136.274 43.2656 136.485 43.125 136.774C42.9844 137.063 42.8984 137.479 42.8672 138.022H42.9551C43.0488 137.874 43.1816 137.724 43.3535 137.571C43.5254 137.415 43.7383 137.286 43.9922 137.185C44.2461 137.079 44.5391 137.026 44.8711 137.026C45.3945 137.026 45.8477 137.134 46.2305 137.349C46.6133 137.563 46.9082 137.884 47.1152 138.31C47.3262 138.731 47.4316 139.259 47.4316 139.892C47.4316 140.634 47.2949 141.255 47.0215 141.755C46.752 142.251 46.377 142.624 45.8965 142.874C45.416 143.124 44.8594 143.249 44.2266 143.249C43.7422 143.249 43.3047 143.161 42.9141 142.985C42.5234 142.81 42.1875 142.55 41.9062 142.206C41.6289 141.862 41.416 141.44 41.2676 140.94C41.1191 140.437 41.0449 139.858 41.0449 139.206ZM44.332 141.802C44.5859 141.802 44.8066 141.747 44.9941 141.638C45.1855 141.524 45.334 141.341 45.4395 141.087C45.5488 140.829 45.6035 140.483 45.6035 140.05C45.6035 139.526 45.5156 139.112 45.3398 138.808C45.168 138.499 44.873 138.345 44.4551 138.345C44.2012 138.345 43.9629 138.407 43.7402 138.532C43.5215 138.653 43.3359 138.794 43.1836 138.954C43.0312 139.11 42.9258 139.243 42.8672 139.353C42.8672 139.661 42.8906 139.962 42.9375 140.255C42.9883 140.544 43.0684 140.806 43.1777 141.04C43.2871 141.274 43.4355 141.46 43.623 141.597C43.8145 141.733 44.0508 141.802 44.332 141.802ZM48.3281 140.647V139.183H51.4746V140.647H48.3281ZM56.4199 136.458C57.1582 136.458 57.7539 136.745 58.207 137.319C58.6641 137.894 58.8926 138.735 58.8926 139.845C58.8926 140.587 58.7852 141.212 58.5703 141.72C58.3555 142.224 58.0586 142.604 57.6797 142.862C57.3008 143.12 56.8652 143.249 56.373 143.249C56.0566 143.249 55.7852 143.21 55.5586 143.132C55.332 143.05 55.1387 142.946 54.9785 142.821C54.8184 142.692 54.6797 142.556 54.5625 142.411H54.4688C54.5 142.567 54.5234 142.728 54.5391 142.892C54.5547 143.056 54.5625 143.216 54.5625 143.372V146.015H52.7754V136.581H54.2285L54.4805 137.431H54.5625C54.6797 137.255 54.8223 137.093 54.9902 136.944C55.1582 136.796 55.3594 136.679 55.5938 136.593C55.832 136.503 56.1074 136.458 56.4199 136.458ZM55.8457 137.888C55.5332 137.888 55.2852 137.952 55.1016 138.081C54.918 138.21 54.7832 138.403 54.6973 138.661C54.6152 138.919 54.5703 139.245 54.5625 139.64V139.833C54.5625 140.255 54.6016 140.612 54.6797 140.905C54.7617 141.198 54.8965 141.421 55.084 141.573C55.2754 141.726 55.5371 141.802 55.8691 141.802C56.1426 141.802 56.3672 141.726 56.543 141.573C56.7188 141.421 56.8496 141.198 56.9355 140.905C57.0254 140.608 57.0703 140.247 57.0703 139.821C57.0703 139.181 56.9707 138.698 56.7715 138.374C56.5723 138.05 56.2637 137.888 55.8457 137.888ZM63.0527 136.446C63.9316 136.446 64.6055 136.638 65.0742 137.021C65.543 137.403 65.7773 137.985 65.7773 138.767V143.132H64.5293L64.1836 142.241H64.1367C63.9492 142.476 63.7578 142.667 63.5625 142.815C63.3672 142.964 63.1426 143.073 62.8887 143.144C62.6348 143.214 62.3262 143.249 61.9629 143.249C61.5762 143.249 61.2285 143.175 60.9199 143.026C60.6152 142.878 60.375 142.651 60.1992 142.347C60.0234 142.038 59.9355 141.647 59.9355 141.175C59.9355 140.479 60.1797 139.968 60.668 139.64C61.1562 139.308 61.8887 139.124 62.8652 139.089L64.002 139.054V138.767C64.002 138.423 63.9121 138.171 63.7324 138.011C63.5527 137.851 63.3027 137.771 62.9824 137.771C62.666 137.771 62.3555 137.815 62.0508 137.905C61.7461 137.995 61.4414 138.108 61.1367 138.245L60.5449 137.038C60.8926 136.854 61.2812 136.71 61.7109 136.604C62.1445 136.499 62.5918 136.446 63.0527 136.446ZM64.002 140.097L63.3105 140.12C62.7324 140.136 62.3301 140.239 62.1035 140.431C61.8809 140.622 61.7695 140.874 61.7695 141.187C61.7695 141.46 61.8496 141.655 62.0098 141.772C62.1699 141.886 62.3789 141.942 62.6367 141.942C63.0195 141.942 63.3418 141.829 63.6035 141.603C63.8691 141.376 64.002 141.054 64.002 140.636V140.097ZM70.0078 136.458C70.4805 136.458 70.9219 136.521 71.332 136.646C71.7422 136.767 72.0742 136.956 72.3281 137.214C72.582 137.468 72.709 137.796 72.709 138.198C72.709 138.593 72.5898 138.907 72.3516 139.142C72.1133 139.372 71.7969 139.538 71.4023 139.64V139.698C71.6797 139.765 71.9297 139.854 72.1523 139.968C72.3789 140.081 72.5586 140.237 72.6914 140.437C72.8242 140.636 72.8906 140.897 72.8906 141.222C72.8906 141.585 72.7754 141.921 72.5449 142.229C72.3145 142.534 71.9609 142.78 71.4844 142.968C71.0117 143.155 70.4043 143.249 69.6621 143.249C69.3105 143.249 68.9785 143.233 68.666 143.202C68.3574 143.171 68.0742 143.126 67.8164 143.067C67.5586 143.005 67.334 142.931 67.1426 142.845V141.368C67.4121 141.493 67.7441 141.608 68.1387 141.714C68.5371 141.819 68.9609 141.872 69.4102 141.872C69.7344 141.872 70.0273 141.849 70.2891 141.802C70.5547 141.755 70.7637 141.677 70.916 141.567C71.0723 141.454 71.1504 141.304 71.1504 141.116C71.1504 140.94 71.082 140.796 70.9453 140.683C70.8125 140.565 70.6074 140.479 70.3301 140.425C70.0566 140.366 69.709 140.337 69.2871 140.337H68.5957V139.101H69.252C69.8457 139.101 70.3047 139.052 70.6289 138.954C70.9531 138.856 71.1152 138.677 71.1152 138.415C71.1152 138.204 71.0117 138.046 70.8047 137.94C70.5977 137.835 70.2559 137.782 69.7793 137.782C69.4707 137.782 69.1309 137.819 68.7598 137.894C68.3887 137.964 68.041 138.065 67.7168 138.198L67.1895 136.95C67.5684 136.806 67.9785 136.688 68.4199 136.599C68.8652 136.505 69.3945 136.458 70.0078 136.458ZM77.9355 136.458C78.6738 136.458 79.2695 136.745 79.7227 137.319C80.1797 137.894 80.4082 138.735 80.4082 139.845C80.4082 140.587 80.3008 141.212 80.0859 141.72C79.8711 142.224 79.5742 142.604 79.1953 142.862C78.8164 143.12 78.3809 143.249 77.8887 143.249C77.5723 143.249 77.3008 143.21 77.0742 143.132C76.8477 143.05 76.6543 142.946 76.4941 142.821C76.334 142.692 76.1953 142.556 76.0781 142.411H75.9844C76.0156 142.567 76.0391 142.728 76.0547 142.892C76.0703 143.056 76.0781 143.216 76.0781 143.372V146.015H74.291V136.581H75.7441L75.9961 137.431H76.0781C76.1953 137.255 76.3379 137.093 76.5059 136.944C76.6738 136.796 76.875 136.679 77.1094 136.593C77.3477 136.503 77.623 136.458 77.9355 136.458ZM77.3613 137.888C77.0488 137.888 76.8008 137.952 76.6172 138.081C76.4336 138.21 76.2988 138.403 76.2129 138.661C76.1309 138.919 76.0859 139.245 76.0781 139.64V139.833C76.0781 140.255 76.1172 140.612 76.1953 140.905C76.2773 141.198 76.4121 141.421 76.5996 141.573C76.791 141.726 77.0527 141.802 77.3848 141.802C77.6582 141.802 77.8828 141.726 78.0586 141.573C78.2344 141.421 78.3652 141.198 78.4512 140.905C78.541 140.608 78.5859 140.247 78.5859 139.821C78.5859 139.181 78.4863 138.698 78.2871 138.374C78.0879 138.05 77.7793 137.888 77.3613 137.888ZM84.5684 136.446C85.4473 136.446 86.1211 136.638 86.5898 137.021C87.0586 137.403 87.293 137.985 87.293 138.767V143.132H86.0449L85.6992 142.241H85.6523C85.4648 142.476 85.2734 142.667 85.0781 142.815C84.8828 142.964 84.6582 143.073 84.4043 143.144C84.1504 143.214 83.8418 143.249 83.4785 143.249C83.0918 143.249 82.7441 143.175 82.4355 143.026C82.1309 142.878 81.8906 142.651 81.7148 142.347C81.5391 142.038 81.4512 141.647 81.4512 141.175C81.4512 140.479 81.6953 139.968 82.1836 139.64C82.6719 139.308 83.4043 139.124 84.3809 139.089L85.5176 139.054V138.767C85.5176 138.423 85.4277 138.171 85.248 138.011C85.0684 137.851 84.8184 137.771 84.498 137.771C84.1816 137.771 83.8711 137.815 83.5664 137.905C83.2617 137.995 82.957 138.108 82.6523 138.245L82.0605 137.038C82.4082 136.854 82.7969 136.71 83.2266 136.604C83.6602 136.499 84.1074 136.446 84.5684 136.446ZM85.5176 140.097L84.8262 140.12C84.248 140.136 83.8457 140.239 83.6191 140.431C83.3965 140.622 83.2852 140.874 83.2852 141.187C83.2852 141.46 83.3652 141.655 83.5254 141.772C83.6855 141.886 83.8945 141.942 84.1523 141.942C84.5352 141.942 84.8574 141.829 85.1191 141.603C85.3848 141.376 85.5176 141.054 85.5176 140.636V140.097ZM88.7402 139.206C88.7402 138.241 88.8594 137.421 89.0977 136.745C89.3359 136.069 89.7148 135.53 90.2344 135.128C90.7539 134.722 91.4355 134.446 92.2793 134.302C92.7012 134.228 93.1289 134.167 93.5625 134.12C94 134.069 94.4531 134.013 94.9219 133.95L95.127 135.515C94.9238 135.538 94.7031 135.563 94.4648 135.591C94.2266 135.618 93.9863 135.647 93.7441 135.679C93.502 135.706 93.2676 135.735 93.041 135.767C92.8145 135.794 92.6094 135.821 92.4258 135.849C92.0273 135.911 91.6953 136.009 91.4297 136.142C91.1641 136.274 90.9609 136.485 90.8203 136.774C90.6797 137.063 90.5938 137.479 90.5625 138.022H90.6504C90.7441 137.874 90.877 137.724 91.0488 137.571C91.2207 137.415 91.4336 137.286 91.6875 137.185C91.9414 137.079 92.2344 137.026 92.5664 137.026C93.0898 137.026 93.543 137.134 93.9258 137.349C94.3086 137.563 94.6035 137.884 94.8105 138.31C95.0215 138.731 95.127 139.259 95.127 139.892C95.127 140.634 94.9902 141.255 94.7168 141.755C94.4473 142.251 94.0723 142.624 93.5918 142.874C93.1113 143.124 92.5547 143.249 91.9219 143.249C91.4375 143.249 91 143.161 90.6094 142.985C90.2188 142.81 89.8828 142.55 89.6016 142.206C89.3242 141.862 89.1113 141.44 88.9629 140.94C88.8145 140.437 88.7402 139.858 88.7402 139.206ZM92.0273 141.802C92.2812 141.802 92.502 141.747 92.6895 141.638C92.8809 141.524 93.0293 141.341 93.1348 141.087C93.2441 140.829 93.2988 140.483 93.2988 140.05C93.2988 139.526 93.2109 139.112 93.0352 138.808C92.8633 138.499 92.5684 138.345 92.1504 138.345C91.8965 138.345 91.6582 138.407 91.4355 138.532C91.2168 138.653 91.0312 138.794 90.8789 138.954C90.7266 139.11 90.6211 139.243 90.5625 139.353C90.5625 139.661 90.5859 139.962 90.6328 140.255C90.6836 140.544 90.7637 140.806 90.873 141.04C90.9824 141.274 91.1309 141.46 91.3184 141.597C91.5098 141.733 91.7461 141.802 92.0273 141.802ZM102.557 139.845C102.557 140.392 102.482 140.876 102.334 141.298C102.189 141.72 101.977 142.077 101.695 142.37C101.418 142.659 101.082 142.878 100.688 143.026C100.297 143.175 99.8555 143.249 99.3633 143.249C98.9023 143.249 98.4785 143.175 98.0918 143.026C97.709 142.878 97.375 142.659 97.0898 142.37C96.8086 142.077 96.5898 141.72 96.4336 141.298C96.2812 140.876 96.2051 140.392 96.2051 139.845C96.2051 139.118 96.334 138.503 96.5918 137.999C96.8496 137.495 97.2168 137.112 97.6934 136.851C98.1699 136.589 98.7383 136.458 99.3984 136.458C100.012 136.458 100.555 136.589 101.027 136.851C101.504 137.112 101.877 137.495 102.146 137.999C102.42 138.503 102.557 139.118 102.557 139.845ZM98.0273 139.845C98.0273 140.274 98.0742 140.636 98.168 140.929C98.2617 141.222 98.4082 141.442 98.6074 141.591C98.8066 141.739 99.0664 141.813 99.3867 141.813C99.7031 141.813 99.959 141.739 100.154 141.591C100.354 141.442 100.498 141.222 100.588 140.929C100.682 140.636 100.729 140.274 100.729 139.845C100.729 139.411 100.682 139.052 100.588 138.767C100.498 138.478 100.354 138.261 100.154 138.116C99.9551 137.972 99.6953 137.899 99.375 137.899C98.9023 137.899 98.5586 138.062 98.3438 138.386C98.1328 138.71 98.0273 139.196 98.0273 139.845ZM109.453 137.923H107.309V143.132H105.521V137.923H103.371V136.581H109.453V137.923ZM114.973 136.581H116.941L114.346 139.722L117.17 143.132H115.143L112.465 139.81V143.132H110.678V136.581H112.465V139.763L114.973 136.581ZM120.791 136.446C121.67 136.446 122.344 136.638 122.812 137.021C123.281 137.403 123.516 137.985 123.516 138.767V143.132H122.268L121.922 142.241H121.875C121.688 142.476 121.496 142.667 121.301 142.815C121.105 142.964 120.881 143.073 120.627 143.144C120.373 143.214 120.064 143.249 119.701 143.249C119.314 143.249 118.967 143.175 118.658 143.026C118.354 142.878 118.113 142.651 117.938 142.347C117.762 142.038 117.674 141.647 117.674 141.175C117.674 140.479 117.918 139.968 118.406 139.64C118.895 139.308 119.627 139.124 120.604 139.089L121.74 139.054V138.767C121.74 138.423 121.65 138.171 121.471 138.011C121.291 137.851 121.041 137.771 120.721 137.771C120.404 137.771 120.094 137.815 119.789 137.905C119.484 137.995 119.18 138.108 118.875 138.245L118.283 137.038C118.631 136.854 119.02 136.71 119.449 136.604C119.883 136.499 120.33 136.446 120.791 136.446ZM121.74 140.097L121.049 140.12C120.471 140.136 120.068 140.239 119.842 140.431C119.619 140.622 119.508 140.874 119.508 141.187C119.508 141.46 119.588 141.655 119.748 141.772C119.908 141.886 120.117 141.942 120.375 141.942C120.758 141.942 121.08 141.829 121.342 141.603C121.607 141.376 121.74 141.054 121.74 140.636V140.097Z" fill="#F5F6FF"/>
</svg>

<svg width="150" height="196" fill="none" xmlns="http://www.w3.org/2000/svg"><path d="M68.88 0H19.683C12.759 0 7.839 1.563 4.923 4.688 1.645 7.466.005 12.154.005 18.752v20.834c0 6.598 1.64 11.46 4.92 14.585 2.915 2.778 7.835 4.167 14.759 4.167h44.824c4.737 0 8.381 1.389 10.932 4.167 2.551 2.43 3.827 5.903 3.827 10.417v7.814H19.683c-6.924 0-11.844 1.562-14.76 4.687C1.645 88.201.005 92.89.005 99.487v77.089c0 6.598 1.64 11.46 4.92 14.585 2.915 2.778 7.835 4.167 14.759 4.167h110.42c6.924 0 12.025-1.389 15.305-4.167 2.916-3.125 4.373-7.987 4.373-14.585V78.652c0-26.391-7.288-46.01-21.865-58.859C112.975 6.598 93.296 0 68.88 0z" fill="#FF7D04"/><path d="M26.432 134.565h2.666c1.14 0 2.004.161 2.59.481.585.32.878.883.878 1.687 0 .325-.052.618-.158.879a1.59 1.59 0 01-.445.645 1.476 1.476 0 01-.715.328v.059c.285.058.543.16.774.304.23.141.413.348.55.621.14.27.211.629.211 1.078 0 .52-.127.965-.38 1.336-.255.371-.618.657-1.09.856-.47.195-1.028.293-1.676.293h-3.205v-8.567zm1.816 3.393h1.055c.527 0 .892-.082 1.095-.246.204-.168.305-.414.305-.738 0-.328-.121-.563-.363-.703-.238-.145-.617-.217-1.137-.217h-.955v1.904zm0 1.441v2.233h1.184c.547 0 .927-.106 1.142-.317.215-.211.322-.494.322-.849a1.08 1.08 0 00-.14-.557c-.094-.16-.252-.285-.475-.375-.218-.09-.521-.135-.908-.135h-1.125zm8.807-2.941c.605 0 1.127.117 1.564.352a2.4 2.4 0 011.014 1.007c.238.442.357.981.357 1.618v.867h-4.224c.02.504.17.9.45 1.189.286.285.68.428 1.184.428.418 0 .801-.043 1.149-.129a5.84 5.84 0 001.072-.387v1.383a4.3 4.3 0 01-1.02.352 6.331 6.331 0 01-1.283.111c-.656 0-1.238-.121-1.746-.363a2.713 2.713 0 01-1.19-1.108c-.284-.496-.427-1.121-.427-1.875 0-.765.129-1.402.387-1.91a2.63 2.63 0 011.09-1.148c.465-.258 1.005-.387 1.623-.387zm.011 1.271c-.347 0-.636.112-.867.334-.226.223-.357.573-.392 1.049h2.508a1.77 1.77 0 00-.147-.709 1.1 1.1 0 00-.41-.492c-.18-.121-.41-.182-.692-.182zm3.979 1.477c0-.965.12-1.785.357-2.461.239-.676.617-1.215 1.137-1.617.52-.406 1.201-.682 2.045-.826a19.8 19.8 0 011.283-.182c.438-.051.89-.107 1.36-.17l.205 1.565a155.061 155.061 0 00-1.383.164c-.242.027-.477.056-.703.088-.227.027-.432.054-.615.082-.399.062-.731.16-.997.293a1.328 1.328 0 00-.609.632c-.14.289-.227.705-.258 1.248h.088c.094-.148.227-.298.398-.451.172-.156.385-.285.64-.386.253-.106.546-.159.878-.159.523 0 .977.108 1.36.323.382.214.677.535.884.961.211.421.317.949.317 1.582 0 .742-.137 1.363-.41 1.863-.27.496-.645.869-1.125 1.119-.481.25-1.038.375-1.67.375a3.16 3.16 0 01-1.313-.264 2.734 2.734 0 01-1.008-.779 3.644 3.644 0 01-.638-1.266c-.149-.503-.223-1.082-.223-1.734zm3.287 2.596c.254 0 .475-.055.662-.164.191-.114.34-.297.446-.551.109-.258.163-.604.163-1.037 0-.524-.087-.938-.263-1.242-.172-.309-.467-.463-.885-.463-.254 0-.492.062-.715.187a2.295 2.295 0 00-.556.422 1.896 1.896 0 00-.317.399c0 .308.024.609.07.902.051.289.131.551.24.785.11.234.258.42.446.557.192.136.428.205.709.205zm3.996-1.155v-1.464h3.147v1.464h-3.147zm8.092-4.189c.738 0 1.334.287 1.787.861.457.575.686 1.416.686 2.526 0 .742-.108 1.367-.323 1.875-.215.504-.511.884-.89 1.142a2.266 2.266 0 01-1.307.387c-.316 0-.588-.039-.814-.117a2.094 2.094 0 01-.58-.311 2.746 2.746 0 01-.416-.41h-.094a4.778 4.778 0 01.093.961v2.643h-1.787v-9.434h1.453l.252.85h.083c.117-.176.26-.338.427-.487a1.89 1.89 0 01.604-.351 2.33 2.33 0 01.826-.135zm-.574 1.43c-.313 0-.56.064-.744.193-.184.129-.319.322-.405.58-.082.258-.127.584-.135.979v.193c0 .422.04.779.118 1.072.082.293.217.516.404.668.191.153.453.229.785.229.274 0 .498-.076.674-.229.176-.152.307-.375.392-.668.09-.297.135-.658.135-1.084 0-.64-.1-1.123-.298-1.447-.2-.324-.508-.486-.926-.486zm7.207-1.442c.879 0 1.553.192 2.021.575.469.382.703.964.703 1.746v4.365H64.53l-.345-.891h-.047a3.281 3.281 0 01-.575.574c-.195.149-.42.258-.673.329a3.53 3.53 0 01-.926.105c-.387 0-.735-.074-1.043-.223a1.656 1.656 0 01-.72-.679c-.177-.309-.265-.7-.265-1.172 0-.696.245-1.207.733-1.535.488-.332 1.22-.516 2.197-.551l1.137-.035v-.287c0-.344-.09-.596-.27-.756-.18-.16-.43-.24-.75-.24a3.27 3.27 0 00-.931.134c-.305.09-.61.203-.914.34l-.592-1.207a5.088 5.088 0 011.166-.434c.434-.105.88-.158 1.342-.158zm.949 3.651l-.691.023c-.579.016-.98.119-1.208.311a.947.947 0 00-.334.756c0 .273.08.468.24.585.16.114.37.17.628.17.383 0 .705-.113.966-.339.266-.227.399-.549.399-.967v-.539zm6.006-3.639c.473 0 .914.063 1.324.188.41.121.742.31.996.568.254.254.381.582.381.984 0 .395-.12.709-.357.944-.239.23-.555.396-.95.498v.058c.278.067.528.156.75.27.227.113.407.269.54.469.132.199.199.46.199.785 0 .363-.116.699-.346 1.007-.23.305-.584.551-1.06.739-.473.187-1.08.281-1.823.281-.352 0-.684-.016-.996-.047a6.92 6.92 0 01-.85-.135 3.845 3.845 0 01-.673-.222v-1.477c.27.125.601.24.996.346.398.105.822.158 1.271.158a5 5 0 00.88-.07c.265-.047.474-.125.626-.235a.53.53 0 00.234-.451.537.537 0 00-.205-.433c-.132-.118-.338-.204-.615-.258a5.084 5.084 0 00-1.043-.088h-.691v-1.236h.656c.594 0 1.053-.049 1.377-.147.324-.098.486-.277.486-.539 0-.211-.103-.369-.31-.475-.207-.105-.55-.158-1.026-.158-.308 0-.648.037-1.02.112-.37.07-.718.171-1.042.304l-.528-1.248a7.8 7.8 0 011.23-.351 7.785 7.785 0 011.589-.141zm7.928 0c.738 0 1.333.287 1.787.861.457.575.685 1.416.685 2.526 0 .742-.107 1.367-.322 1.875-.215.504-.512.884-.89 1.142a2.266 2.266 0 01-1.307.387c-.317 0-.588-.039-.815-.117a2.095 2.095 0 01-.58-.311 2.746 2.746 0 01-.416-.41h-.094a5.07 5.07 0 01.094.961v2.643h-1.787v-9.434h1.453l.252.85h.082c.117-.176.26-.338.428-.487.168-.148.369-.265.603-.351a2.33 2.33 0 01.827-.135zm-.575 1.43c-.312 0-.56.064-.744.193-.183.129-.318.322-.404.58-.082.258-.127.584-.135.979v.193c0 .422.04.779.117 1.072.082.293.217.516.405.668.191.153.453.229.785.229.273 0 .498-.076.674-.229.175-.152.306-.375.392-.668.09-.297.135-.658.135-1.084 0-.64-.1-1.123-.299-1.447-.2-.324-.508-.486-.926-.486zm7.207-1.442c.88 0 1.553.192 2.022.575.469.382.703.964.703 1.746v4.365h-1.248l-.346-.891h-.047a3.281 3.281 0 01-.574.574c-.195.149-.42.258-.674.329-.254.07-.562.105-.925.105-.387 0-.735-.074-1.043-.223a1.657 1.657 0 01-.721-.679c-.176-.309-.264-.7-.264-1.172 0-.696.244-1.207.733-1.535.488-.332 1.22-.516 2.197-.551l1.137-.035v-.287c0-.344-.09-.596-.27-.756-.18-.16-.43-.24-.75-.24a3.27 3.27 0 00-.932.134 7.26 7.26 0 00-.914.34l-.591-1.207a5.089 5.089 0 011.166-.434 5.68 5.68 0 011.341-.158zm.95 3.651l-.692.023c-.578.016-.98.119-1.207.311a.947.947 0 00-.334.756c0 .273.08.468.24.585.16.114.37.17.627.17.383 0 .705-.113.967-.339.266-.227.399-.549.399-.967v-.539zm3.222-.891c0-.965.12-1.785.358-2.461.238-.676.617-1.215 1.136-1.617.52-.406 1.202-.682 2.045-.826.422-.074.85-.135 1.284-.182.437-.051.89-.107 1.359-.17l.205 1.565a153.179 153.179 0 00-1.383.164 24.3 24.3 0 00-.703.088c-.227.027-.432.054-.615.082a3.4 3.4 0 00-.996.293 1.328 1.328 0 00-.61.632c-.14.289-.226.705-.257 1.248h.087c.094-.148.227-.298.399-.451a2.266 2.266 0 011.518-.545c.523 0 .976.108 1.359.323.383.214.677.535.885.961.21.421.316.949.316 1.582 0 .742-.137 1.363-.41 1.863-.27.496-.645.869-1.125 1.119s-1.037.375-1.67.375a3.16 3.16 0 01-1.313-.264 2.733 2.733 0 01-1.007-.779 3.643 3.643 0 01-.64-1.266c-.148-.503-.222-1.082-.222-1.734zm3.287 2.596c.254 0 .475-.055.662-.164.192-.114.34-.297.446-.551.11-.258.164-.604.164-1.037 0-.524-.088-.938-.264-1.242-.172-.309-.467-.463-.885-.463-.254 0-.492.062-.715.187a2.295 2.295 0 00-.556.422 1.9 1.9 0 00-.317.399c0 .308.024.609.07.902.052.289.132.551.241.785.11.234.258.42.445.557.192.136.428.205.71.205zm10.53-1.957c0 .547-.075 1.031-.223 1.453a2.859 2.859 0 01-.639 1.072 2.679 2.679 0 01-1.007.656 3.698 3.698 0 01-1.325.223c-.46 0-.885-.074-1.271-.223a2.821 2.821 0 01-1.002-.656c-.281-.293-.5-.65-.656-1.072-.153-.422-.229-.906-.229-1.453 0-.727.129-1.342.387-1.846a2.648 2.648 0 011.101-1.148c.477-.262 1.045-.393 1.705-.393.614 0 1.157.131 1.629.393.477.261.85.644 1.119 1.148.274.504.411 1.119.411 1.846zm-4.53 0c0 .429.047.791.141 1.084.094.293.24.513.44.662.199.148.458.222.779.222.316 0 .572-.074.767-.222.2-.149.344-.369.434-.662.094-.293.141-.655.141-1.084 0-.434-.047-.793-.141-1.078-.09-.289-.234-.506-.434-.651-.199-.144-.459-.217-.779-.217-.473 0-.816.163-1.031.487-.211.324-.317.81-.317 1.459zm11.426-1.922h-2.144v5.209h-1.788v-5.209h-2.15v-1.342h6.082v1.342zm5.52-1.342h1.968l-2.595 3.141 2.824 3.41h-2.027l-2.678-3.322v3.322h-1.787v-6.551h1.787v3.182l2.508-3.182zm5.818-.135c.879 0 1.553.192 2.021.575.469.382.704.964.704 1.746v4.365h-1.248l-.346-.891h-.047a3.274 3.274 0 01-.574.574 1.98 1.98 0 01-.674.329 3.53 3.53 0 01-.926.105c-.387 0-.734-.074-1.043-.223a1.654 1.654 0 01-.72-.679c-.176-.309-.264-.7-.264-1.172 0-.696.244-1.207.732-1.535.489-.332 1.221-.516 2.198-.551l1.136-.035v-.287c0-.344-.09-.596-.269-.756-.18-.16-.43-.24-.75-.24-.317 0-.627.044-.932.134-.305.09-.609.203-.914.34l-.592-1.207a5.105 5.105 0 011.166-.434 5.685 5.685 0 011.342-.158zm.949 3.651l-.691.023c-.578.016-.981.119-1.207.311a.946.946 0 00-.334.756c0 .273.08.468.24.585.16.114.369.17.627.17.383 0 .705-.113.967-.339.265-.227.398-.549.398-.967v-.539z" fill="#F5F6FF"/></svg>
